X:25
T:Round The Bay Of Mexico
M:C|
L:1/8
Q:1/4=120
K:F
F3G A2B2|A2G2 F4|c6 f2|d2d2 c4|
d2d2 c2A2|BAGF E2C2|F3G A2B2|A2G2 F4||
